X:126
T:Sligo Fancy, The
R:hornpipe
H:See also The Flowers of Antrim, #125
Z:id:hn-hornpipe-126
M:C|
L:1/8
K:G
ba | gfge B2ed | cBcA E2AG | FGAB cdef | (3gba (3gfe d2ba | 
gfge B2ed | cBcA E2AG | FGAB cdef | g2b2 g2 :|
|: Bc | dBgB dgBc | dBgB d2cB | cAfA cfAB | (3cBA fA c2Bc |
dBgB dgBc | dBgB d2cB | cAag fdef | g2b2 g2 :| 

